symbols/web/cast_connected/materialsymbolssharp/cast_connected_wght100fill1_40px.svg

<svg xmlns="http://www.w3.org/2000/svg" height="40" width="40"><path d="M22.083 25.333h6.584V14.667H13.958v1.125q3 1.458 5.063 3.896 2.062 2.437 3.062 5.645Zm-2.416 5.834q0-2.959-1.105-5.542-1.104-2.583-3.02-4.5-1.917-1.917-4.5-3.042-2.584-1.125-5.542-1.125V8.833h29v22.334Zm-5.834 0q0-3.459-2.437-5.917-2.438-2.458-5.896-2.458v-4.834q2.75 0 5.125 1.042t4.167 2.833q1.791 1.792 2.833 4.188 1.042 2.396 1.042 5.146Zm-5.833 0q0-1.042-.75-1.792t-1.75-.75v-4.833q3.083.083 5.208 2.208t2.125 5.167Z"/></svg>

<svg xmlns="http://www.w3.org/2000/svg" height="40" width="40"><path d="M22.083 25.333H28.667V14.667H13.958V15.792Q16.958 17.25 19.021 19.688Q21.083 22.125 22.083 25.333ZM19.667 31.167Q19.667 28.208 18.562 25.625Q17.458 23.042 15.542 21.125Q13.625 19.208 11.042 18.083Q8.458 16.958 5.5 16.958V8.833H34.5V31.167ZM13.833 31.167Q13.833 27.708 11.396 25.25Q8.958 22.792 5.5 22.792V17.958Q8.25 17.958 10.625 19Q13 20.042 14.792 21.833Q16.583 23.625 17.625 26.021Q18.667 28.417 18.667 31.167ZM8 31.167Q8 30.125 7.25 29.375Q6.5 28.625 5.5 28.625V23.792Q8.583 23.875 10.708 26Q12.833 28.125 12.833 31.167Z"/></svg>
